logo.svg

<svg width="147" height="189" xmlns="http://www.w3.org/2000/svg" xmlns:xlink="http://www.w3.org/1999/xlink" preserveAspectRatio="xMidYMid meet">
 <defs>
  <path id="cQMub0t6j" d="m258.68,292.6c0,36.7 -29.8,66.5 -66.5,66.5c-36.7,0 -66.5,-29.8 -66.5,-66.5c0,-36.71 29.8,-66.5 66.5,-66.5c36.7,0 66.5,29.79 66.5,66.5z"/>
  <path id="fiH9DgIMO" d="m260.63,296.3c0,34.65 -26.8,62.79 -59.81,62.79c-33,0 -59.8,-28.14 -59.8,-62.79c0,-34.66 26.8,-62.79 59.8,-62.79c33.01,0 59.81,28.13 59.81,62.79z"/>
  <path id="b6xxKphErq" d="m260.63,292.59c0,36.7 -30.67,66.5 -68.45,66.5c-37.78,0 -68.45,-29.8 -68.45,-66.5c0,-36.7 30.67,-66.49 68.45,-66.49c37.78,0 68.45,29.79 68.45,66.49z"/>
  <path id="a5xTrur7t" d="m248.34,215.87c-18.27,4.11 -28.5,13.2 -30.71,27.28"/>
  <path id="ck5JItuJw" d="m226.41,256.79c-4.1,-14.78 -12.29,-16.49 -24.58,-5.12"/>
  <path id="iyPrAZcN" d="m232.27,203.64c0,7.52 -5.05,13.64 -11.27,13.64c-6.22,0 -11.27,-6.12 -11.27,-13.64c0,-7.53 5.05,-13.64 11.27,-13.64c6.22,0 11.27,6.11 11.27,13.64z"/>
  <path id="c1uFlX7iX8" d="m216.88,194.55c0,7.53 -3.59,13.64 -8.02,13.64c-4.43,0 -8.03,-6.11 -8.03,-13.64c0,-7.52 3.6,-13.64 8.03,-13.64c4.43,0 8.02,6.12 8.02,13.64z"/>
  <path id="j1iAaSyShp" d="m197.45,179.21c4.09,21.6 14.92,34.95 32.47,40.07"/>
  <path id="bhl15XbKy" d="m195.14,179.21c29.07,8.31 40.6,21.66 34.58,40.07"/>
  <path id="aQt6aQxft" d="m170.16,315.43c0,2.82 -2.36,5.12 -5.26,5.12c-2.91,0 -5.27,-2.3 -5.27,-5.12c0,-2.82 2.36,-5.11 5.27,-5.11c2.9,0 5.26,2.29 5.26,5.11z"/>
  <path id="g1ktwTpoif" d="m183.32,334.7c0,2.82 -2.36,5.12 -5.27,5.12c-2.91,0 -5.26,-2.3 -5.26,-5.12c0,-2.82 2.35,-5.11 5.26,-5.11c2.91,0 5.27,2.29 5.27,5.11z"/>
  <path id="a508HGED9y" d="m198.35,316.45c0,2.82 -2.36,5.11 -5.27,5.11c-2.9,0 -5.26,-2.29 -5.26,-5.11c0,-2.83 2.36,-5.12 5.26,-5.12c2.91,0 5.27,2.29 5.27,5.12z"/>
  <path id="a1KVT6KJYa" d="m207.75,336.73c0,2.82 -2.36,5.11 -5.27,5.11c-2.91,0 -5.26,-2.29 -5.26,-5.11c0,-2.82 2.35,-5.12 5.26,-5.12c2.91,0 5.27,2.3 5.27,5.12z"/>
 </defs>
 <g>
  <title>background</title>
  <rect fill="none" id="canvas_background" height="191" width="149" y="-1" x="-1"/>
 </g>
 <g>
  <title>Layer 1</title>
  <g id="svg_1">
   <g id="svg_2">
    <g id="svg_3">
     <use x="-119" y="-174" id="svg_4" fill="#ffffff" xlink:href="#cQMub0t6j"/>
    </g>
    <g id="svg_5">
     <use x="-119" y="-174" id="svg_6" fill="#f8e026" xlink:href="#fiH9DgIMO"/>
    </g>
    <g id="svg_7">
     <use x="-119" y="-174" id="svg_8" fill-opacity="0" fill="#ffffff" xlink:href="#b6xxKphErq"/>
     <g id="svg_9">
      <use x="-119" y="-174" id="svg_10" stroke-width="7" stroke="#441623" fill-opacity="0" xlink:href="#b6xxKphErq"/>
     </g>
    </g>
    <g id="svg_11">
     <g id="svg_12">
      <use x="-119" y="-174" id="svg_13" stroke-width="7" stroke="#2a1d20" fill-opacity="0" xlink:href="#a5xTrur7t"/>
     </g>
    </g>
    <g id="svg_14">
     <g id="svg_15">
      <use x="-119" y="-174" id="svg_16" stroke-width="7" stroke="#2a1d20" fill-opacity="0" xlink:href="#ck5JItuJw"/>
     </g>
    </g>
    <g id="svg_17">
     <use x="-119" y="-174" id="svg_18" fill="#58d509" xlink:href="#iyPrAZcN"/>
    </g>
    <g id="svg_19">
     <use x="-119" y="-174" id="svg_20" fill="#58d509" xlink:href="#c1uFlX7iX8"/>
    </g>
    <g id="svg_21">
     <g id="svg_22">
      <use x="-119" y="-174" id="svg_23" stroke-width="7" stroke="#2a1d20" fill-opacity="0" xlink:href="#j1iAaSyShp"/>
     </g>
    </g>
    <g id="svg_24">
     <g id="svg_25">
      <use x="-119" y="-174" id="svg_26" stroke-width="7" stroke="#2a1d20" fill-opacity="0" xlink:href="#bhl15XbKy"/>
     </g>
    </g>
    <g id="svg_27">
     <use x="-119" y="-174" id="svg_28" fill="#441623" xlink:href="#aQt6aQxft"/>
    </g>
    <g id="svg_29">
     <use x="-119" y="-174" id="svg_30" fill="#441623" xlink:href="#g1ktwTpoif"/>
    </g>
    <g id="svg_31">
     <use x="-119" y="-174" id="svg_32" fill="#441623" xlink:href="#a508HGED9y"/>
    </g>
    <g id="svg_33">
     <use x="-119" y="-174" id="svg_34" fill="#441623" xlink:href="#a1KVT6KJYa"/>
    </g>
   </g>
  </g>
 </g>
</svg>

<?xml version="1.0" encoding="UTF-8" standalone="no"?>
<!DOCTYPE svg PUBLIC "-//W3C//DTD SVG 1.1//EN" "http://www.w3.org/Graphics/SVG/1.1/DTD/svg11.dtd">
<svg version="1.1" xmlns="http://www.w3.org/2000/svg" xmlns:xlink="http://www.w3.org/1999/xlink" preserveAspectRatio="xMidYMid meet" viewBox="0 0 640 640" width="320" height="320"><defs><path d="M258.68 292.6C258.68 329.3 228.88 359.1 192.18 359.1C155.48 359.1 125.68 329.3 125.68 292.6C125.68 255.89 155.48 226.1 192.18 226.1C228.88 226.1 258.68 255.89 258.68 292.6Z" id="cQMub0t6j"></path><path d="M260.63 296.3C260.63 330.95 233.83 359.09 200.82 359.09C167.82 359.09 141.02 330.95 141.02 296.3C141.02 261.64 167.82 233.51 200.82 233.51C233.83 233.51 260.63 261.64 260.63 296.3Z" id="fiH9DgIMO"></path><path d="M260.63 292.59C260.63 329.29 229.96 359.09 192.18 359.09C154.4 359.09 123.73 329.29 123.73 292.59C123.73 255.89 154.4 226.1 192.18 226.1C229.96 226.1 260.63 255.89 260.63 292.59Z" id="b6xxKphErq"></path><path d="M248.34 215.87C230.07 219.98 219.84 229.07 217.63 243.15" id="a5xTrur7t"></path><path d="M226.41 256.79C222.31 242.01 214.12 240.3 201.83 251.67" id="ck5JItuJw"></path><path d="M232.27 203.64C232.27 211.16 227.22 217.28 221 217.28C214.78 217.28 209.73 211.16 209.73 203.64C209.73 196.11 214.78 190 221 190C227.22 190 232.27 196.11 232.27 203.64Z" id="iyPrAZcN"></path><path d="M216.88 194.55C216.88 202.08 213.29 208.19 208.86 208.19C204.43 208.19 200.83 202.08 200.83 194.55C200.83 187.03 204.43 180.91 208.86 180.91C213.29 180.91 216.88 187.03 216.88 194.55Z" id="c1uFlX7iX8"></path><path d="M197.45 179.21C201.54 200.81 212.37 214.16 229.92 219.28" id="j1iAaSyShp"></path><path d="M195.14 179.21C224.21 187.52 235.74 200.87 229.72 219.28" id="bhl15XbKy"></path><path d="M170.16 315.43C170.16 318.25 167.8 320.55 164.9 320.55C161.99 320.55 159.63 318.25 159.63 315.43C159.63 312.61 161.99 310.32 164.9 310.32C167.8 310.32 170.16 312.61 170.16 315.43Z" id="aQt6aQxft"></path><path d="M183.32 334.7C183.32 337.52 180.96 339.82 178.05 339.82C175.14 339.82 172.79 337.52 172.79 334.7C172.79 331.88 175.14 329.59 178.05 329.59C180.96 329.59 183.32 331.88 183.32 334.7Z" id="g1ktwTpoif"></path><path d="M198.35 316.45C198.35 319.27 195.99 321.56 193.08 321.56C190.18 321.56 187.82 319.27 187.82 316.45C187.82 313.62 190.18 311.33 193.08 311.33C195.99 311.33 198.35 313.62 198.35 316.45Z" id="a508HGED9y"></path><path d="M207.75 336.73C207.75 339.55 205.39 341.84 202.48 341.84C199.57 341.84 197.22 339.55 197.22 336.73C197.22 333.91 199.57 331.61 202.48 331.61C205.39 331.61 207.75 333.91 207.75 336.73Z" id="a1KVT6KJYa"></path></defs><g><g><g><use xlink:href="#cQMub0t6j" opacity="1" fill="#ffffff" fill-opacity="1"></use></g><g><use xlink:href="#fiH9DgIMO" opacity="1" fill="#f8e026" fill-opacity="1"></use></g><g><use xlink:href="#b6xxKphErq" opacity="1" fill="#ffffff" fill-opacity="0"></use><g><use xlink:href="#b6xxKphErq" opacity="1" fill-opacity="0" stroke="#441623" stroke-width="7" stroke-opacity="1"></use></g></g><g><g><use xlink:href="#a5xTrur7t" opacity="1" fill-opacity="0" stroke="#2a1d20" stroke-width="7" stroke-opacity="1"></use></g></g><g><g><use xlink:href="#ck5JItuJw" opacity="1" fill-opacity="0" stroke="#2a1d20" stroke-width="7" stroke-opacity="1"></use></g></g><g><use xlink:href="#iyPrAZcN" opacity="1" fill="#58d509" fill-opacity="1"></use></g><g><use xlink:href="#c1uFlX7iX8" opacity="1" fill="#58d509" fill-opacity="1"></use></g><g><g><use xlink:href="#j1iAaSyShp" opacity="1" fill-opacity="0" stroke="#2a1d20" stroke-width="7" stroke-opacity="1"></use></g></g><g><g><use xlink:href="#bhl15XbKy" opacity="1" fill-opacity="0" stroke="#2a1d20" stroke-width="7" stroke-opacity="1"></use></g></g><g><use xlink:href="#aQt6aQxft" opacity="1" fill="#441623" fill-opacity="1"></use></g><g><use xlink:href="#g1ktwTpoif" opacity="1" fill="#441623" fill-opacity="1"></use></g><g><use xlink:href="#a508HGED9y" opacity="1" fill="#441623" fill-opacity="1"></use></g><g><use xlink:href="#a1KVT6KJYa" opacity="1" fill="#441623" fill-opacity="1"></use></g></g></g></svg>
